svgs/sharp-regular/location-plus.svg

<svg xmlns="http://www.w3.org/2000/svg" viewBox="0 0 384 512"><!--! Font Awesome Pro 6.6.0 by @fontawesome - https://fontawesome.com License - https://fontawesome.com/license (Commercial License) Copyright 2024 Fonticons, Inc. --><path d="M336 192c0-79.5-64.5-144-144-144S48 112.5 48 192c0 16.3 7.7 42 24.7 75.4c16.4 32.2 38.8 66.4 62.1 98.3c20.3 27.9 40.7 53.3 57.2 73.1c16.5-19.8 36.9-45.2 57.2-73.1c23.2-31.9 45.6-66.2 62.1-98.3C328.3 234 336 208.3 336 192zm48 0c0 83.1-105.6 219-160.2 283.6C204.8 498.1 192 512 192 512s-12.8-13.9-31.8-36.4C105.6 411 0 275.1 0 192C0 86 86 0 192 0S384 86 384 192zM168 304l0-24 0-64-64 0-24 0 0-48 24 0 64 0 0-64 0-24 48 0 0 24 0 64 64 0 24 0 0 48-24 0-64 0 0 64 0 24-48 0z"/></svg>

<svg xmlns="http://www.w3.org/2000/svg" viewBox="0 0 384 512"><!--! Font Awesome Pro 6.4.0 by @fontawesome - https://fontawesome.com License - https://fontawesome.com/license (Commercial License) Copyright 2023 Fonticons, Inc. --><path d="M336 192c0-79.5-64.5-144-144-144S48 112.5 48 192c0 16.3 7.7 42 24.7 75.4c16.4 32.2 38.8 66.4 62.1 98.3c20.3 27.9 40.7 53.3 57.2 73.1c16.5-19.8 36.9-45.2 57.2-73.1c23.2-31.9 45.6-66.2 62.1-98.3C328.3 234 336 208.3 336 192zm48 0c0 83.1-105.6 219-160.2 283.6C204.8 498.1 192 512 192 512s-12.8-13.9-31.8-36.4C105.6 411 0 275.1 0 192C0 86 86 0 192 0S384 86 384 192zM168 304V280 216H104 80V168h24 64V104 80h48l0 24v64h64 24v48H280 216v64 24H168z"/></svg>
